azure-icons/command-1011-Backlog.svg

<svg xmlns="http://www.w3.org/2000/svg" viewBox="0 0 15.9 12.1"><path d="M1.4 1.6L3 0l.7.7-2.3 2.4L0 1.7.7 1zm0 3L3 3l.7.7-2.3 2.4L0 4.7.7 4zm0 3L3 6l.7.7-2.3 2.4L0 7.7.7 7zm0 3L3 9l.7.7-2.3 2.4L0 10.7l.7-.7zM4.9 1h11v1h-11zm0 4V4h11v1zm0 3V7h11v1zm0 3v-1h11v1z"/></svg>

<svg xmlns="http://www.w3.org/2000/svg" viewBox="0 0 15.9 12.1"><title>Asset 8</title><path d="M1.4,1.6,3,0l.7.7L1.4,3.1,0,1.7.7,1Zm0,3L3,3l.7.7L1.4,6.1,0,4.7.7,4Zm0,3L3,6l.7.7L1.4,9.1,0,7.7.7,7Zm0,3L3,9l.7.7L1.4,12.1,0,10.7.7,10ZM4.9,1h11V2H4.9Zm0,4V4h11V5Zm0,3V7h11V8Zm0,3V10h11v1Z"/></svg>
